packages/core/src/svgs/networks/mono/moonriver.svg

<svg width="24" height="24" viewBox="0 0 24 24" fill="none" xmlns="http://www.w3.org/2000/svg">
<path d="M20.1739 11.2359C20.3166 10.0704 20.2085 8.88794 19.8567 7.76776C19.5051 6.64755 18.9178 5.6155 18.1344 4.74087C17.3512 3.86623 16.3898 3.16922 15.315 2.6966C14.2402 2.22397 13.0767 1.98665 11.9027 2.00058C10.7286 2.0145 9.57105 2.27932 8.50779 2.7773C7.44449 3.27528 6.49997 3.99489 5.73759 4.88786C4.97523 5.78081 4.41262 6.82649 4.08755 7.95474C3.76246 9.08297 3.6824 10.2677 3.85276 11.4294C5.0599 10.3043 6.6426 9.66873 8.29262 9.64663C9.98127 9.67669 11.62 10.2253 12.9864 11.2181C14.1465 12.0905 15.5874 12.5049 17.0337 12.3819C18.1564 12.2562 19.2318 11.8607 20.1684 11.2291L20.1739 11.2359ZM5.52852 14.3527C5.52852 14.0769 5.7934 13.764 6.1173 13.764C6.43982 13.764 6.7047 14.0769 6.7047 14.3527V17.2815C6.7047 17.5588 6.43982 17.8827 6.1173 17.8827C5.7934 17.8827 5.52714 17.5588 5.52714 17.2815L5.52852 14.3527ZM10.822 13.764C10.822 13.4936 11.0869 13.1766 11.4108 13.1766C11.7333 13.1766 11.9982 13.4936 11.9982 13.764V16.7051C11.9982 16.9769 11.7333 17.2939 11.4108 17.2939C11.0869 17.2939 10.822 16.9755 10.822 16.7051V13.764ZM12.587 14.9415C12.587 14.6876 12.8519 14.3527 13.1744 14.3527C13.4983 14.3527 13.7632 14.6876 13.7632 14.9415V15.5289C13.7632 15.7815 13.4983 16.1177 13.1744 16.1177C12.8519 16.1177 12.587 15.7815 12.587 15.5289V14.9415ZM17.8805 15.5289C17.8805 15.2297 18.1454 14.9415 18.4679 14.9415C18.7918 14.9415 19.0581 15.2297 19.0581 15.5289V17.2939C19.0538 17.4488 18.9903 17.5962 18.8805 17.7055C18.7705 17.8149 18.6229 17.8777 18.4679 17.8813C18.3134 17.877 18.1664 17.8139 18.0571 17.7047C17.9479 17.5953 17.8846 17.4483 17.8805 17.2939V15.5289ZM7.29348 13.764C7.29348 13.5005 7.55836 13.1766 7.88089 13.1766C8.20478 13.1766 8.46966 13.5005 8.46966 13.764V17.9115C8.46966 18.1764 8.20478 18.4701 7.88089 18.4701C7.55836 18.4701 7.29348 18.1764 7.29348 17.9115V13.764ZM14.352 15.5289C14.352 15.2352 14.6155 14.9415 14.9394 14.9415C15.2633 14.9415 15.5281 15.2352 15.5281 15.5289V20.235C15.5227 20.3893 15.4588 20.5357 15.3496 20.6447C15.2402 20.7538 15.0936 20.8172 14.9394 20.8224C14.7851 20.8172 14.6385 20.7538 14.5291 20.6447C14.4199 20.5357 14.3561 20.3893 14.3506 20.235L14.352 15.5289ZM16.1156 16.1191C16.1156 15.8487 16.3804 15.5303 16.7043 15.5303C17.0282 15.5303 17.2917 15.8487 17.2917 16.1191V19.6463C17.2917 19.9166 17.0282 20.235 16.7043 20.235C16.3804 20.235 16.1156 19.9166 16.1156 19.6463V16.1191ZM9.05707 13.1779C9.05707 12.9021 9.32195 12.5892 9.64585 12.5892C9.96975 12.5892 10.2333 12.9021 10.2333 13.1779V21.4126C10.2333 21.6885 9.96975 22 9.64585 22C9.32195 22 9.05707 21.6885 9.05707 21.4126V13.1779Z" fill="white"/>
<path d="M8.85772 11.8833C8.09059 11.8387 7.3223 11.948 6.59802 12.2047C5.87374 12.4613 5.20808 12.8602 4.6402 13.3779C4.57376 13.433 4.495 13.4712 4.41059 13.4893C4.32618 13.5074 4.23866 13.5048 4.15549 13.4817C4.07231 13.4587 3.99593 13.4159 3.93288 13.3569C3.86983 13.298 3.82198 13.2247 3.7934 13.1432C3.76039 13.0457 3.75781 12.9405 3.786 12.8414C3.81419 12.7424 3.87181 12.6543 3.95123 12.5887C4.99775 11.642 6.31212 11.0432 7.71323 10.8749C9.11431 10.7065 10.5332 10.9768 11.7742 11.6486C12.152 11.8627 12.507 12.1097 12.8392 12.3897L13.1329 12.6065C14.0915 13.2487 15.2154 13.5999 16.3691 13.618C17.6976 13.6304 18.856 12.8769 19.3857 12.4899C19.4973 12.4053 19.6379 12.3683 19.7766 12.3868C19.9154 12.4053 20.0414 12.4779 20.1269 12.5887C20.169 12.6432 20.1996 12.7055 20.2172 12.7721C20.2347 12.8386 20.2386 12.9081 20.2287 12.9761C20.2189 13.0443 20.1955 13.1097 20.1598 13.1686C20.1241 13.2274 20.077 13.2786 20.0212 13.3188C19.4681 13.7306 18.0627 14.6721 16.3568 14.6597C14.9943 14.6349 13.6676 14.2205 12.5331 13.4657L12.1392 13.172L11.9636 13.0306C11.0717 12.3358 9.98697 11.9331 8.85772 11.8778V11.8833Z" fill="white"/>
</svg>

<svg xmlns="http://www.w3.org/2000/svg" width="24" height="24" fill="none" viewBox="0 0 24 24">
    <path fill="#fff" d="M20.174 11.236a8.235 8.235 0 1 0-16.321.193 6.64 6.64 0 0 1 4.44-1.782 8.24 8.24 0 0 1 4.693 1.571 5.9 5.9 0 0 0 4.048 1.164 7 7 0 0 0 3.134-1.153zM5.529 14.353c0-.276.264-.589.588-.589s.588.313.588.589v2.929c0 .277-.265.6-.588.6-.324 0-.59-.323-.59-.6zm5.293-.589c0-.27.265-.587.589-.587.322 0 .587.317.587.587v2.941c0 .272-.265.589-.587.589-.324 0-.589-.319-.589-.589zm1.765 1.178c0-.254.265-.59.587-.59.324 0 .59.336.59.59v.587c0 .252-.266.589-.59.589-.322 0-.587-.336-.587-.59zm5.294.587c0-.3.264-.588.587-.588.324 0 .59.289.59.588v1.765a.604.604 0 0 1-.59.587.605.605 0 0 1-.587-.587zM7.293 13.764c0-.263.265-.587.588-.587.324 0 .589.324.589.587v4.148c0 .264-.265.558-.59.558-.322 0-.587-.294-.587-.558zm7.059 1.765a.61.61 0 0 1 .587-.588.61.61 0 0 1 .59.588v4.706a.61.61 0 0 1-.59.587.61.61 0 0 1-.588-.587zm1.764.59c0-.27.264-.589.588-.589s.588.319.588.59v3.526c0 .27-.264.589-.588.589s-.588-.318-.588-.589zm-7.059-2.941c0-.276.265-.589.589-.589s.587.313.587.589v8.235c0 .276-.263.587-.587.587s-.589-.311-.589-.587z"/>
    <path fill="#fff" d="M8.858 11.883a5.76 5.76 0 0 0-4.218 1.495.536.536 0 0 1-.847-.235.51.51 0 0 1 .158-.554 6.82 6.82 0 0 1 7.823-.94q.567.32 1.065.74l.294.218a6 6 0 0 0 3.236 1.011c1.329.012 2.487-.741 3.017-1.128a.53.53 0 0 1 .831.282.51.51 0 0 1-.196.547c-.553.412-1.958 1.353-3.664 1.34a7.14 7.14 0 0 1-3.824-1.193l-.394-.294-.175-.141a5.5 5.5 0 0 0-3.106-1.153z"/>
</svg>
